src/components/atoms/Icon/svgs/youtube.svg

<svg width="24" height="24" viewBox="0 0 24 24" fill="none" xmlns="http://www.w3.org/2000/svg">
    <path
        d="M22.54 6.42C22.4212 5.94541 22.1792 5.51057 21.8386 5.15941C21.498 4.80824 21.0707 4.55318 20.6 4.42C18.88 4 12 4 12 4C12 4 5.11996 4 3.39996 4.46C2.92921 4.59318 2.50194 4.84824 2.16131 5.19941C1.82068 5.55057 1.57875 5.98541 1.45996 6.46C1.14518 8.20556 0.991197 9.97631 0.999961 11.75C0.988741 13.537 1.14273 15.3213 1.45996 17.08C1.59092 17.5398 1.83827 17.9581 2.17811 18.2945C2.51794 18.6308 2.93878 18.8738 3.39996 19C5.11996 19.46 12 19.46 12 19.46C12 19.46 18.88 19.46 20.6 19C21.0707 18.8668 21.498 18.6118 21.8386 18.2606C22.1792 17.9094 22.4212 17.4746 22.54 17C22.8523 15.2676 23.0063 13.5103 23 11.75C23.0112 9.96295 22.8572 8.1787 22.54 6.42Z"
        stroke="currentColor" stroke-width="2" stroke-linecap="round" stroke-linejoin="round" />
    <path d="M9.75 15.02L15.5 11.75L9.75 8.47998V15.02Z" stroke="currentColor" stroke-width="2" stroke-linecap="round"
        stroke-linejoin="round" />
</svg>

<svg viewBox="0 0 24 24" fill="none" xmlns="http://www.w3.org/2000/svg">
    <path d="M22.54 6.42a2.78 2.78 0 00-1.94-2C18.88 4 12 4 12 4s-6.88 0-8.6.46a2.78 2.78 0 00-1.94 2A29 29 0 001 11.75a29 29 0 00.46 5.33A2.78 2.78 0 003.4 19c1.72.46 8.6.46 8.6.46s6.88 0 8.6-.46a2.78 2.78 0 001.94-2c.312-1.732.466-3.49.46-5.25a29.005 29.005 0 00-.46-5.33z" stroke="currentColor" stroke-width="2" stroke-linecap="round" stroke-linejoin="round"/>
    <path d="M9.75 15.02l5.75-3.27-5.75-3.27v6.54z" stroke="currentColor" stroke-width="2" stroke-linecap="round" stroke-linejoin="round"/>
</svg>
